X:1
T:Title
%%score { ( 1 3 ) | ( 2 4 ) }
L:1/8
Q:1/4=100
M:4/4
K:F
V:1 treble nm="Grand Piano"
V:3 treble 
V:2 bass 
V:4 bass 
V:1
 A2 _AA =AACC | D2 [DF]2 F4 | A2 cc [Ec][EG][EG][EG] | F2 [EG]2 A4 | A2 _AA =AACC | %5
w: W.~H.~Doane * * * * * *|||||
 D2 [B,DF]2 [DFB]4 | [CFc]2 [DFB][DFA] [CFA]3 [A,F] | [FA]2 z2 z4 | [Fc]6 z2 | %9
w: ||||
 [Ac][GB][GB][^FA] [GB]4 | [EB]6 z2 | [CGB]AA_A =A4 | d2- [B,d-]2 [B,d]f[Fe][Fd] | dccA A4 | %14
w: |||||
 [CFc]2 [DFB][DFA] [CFA][CFA] [A,F]2 | [FA]2 z2 z4 |] %16
w: ||
V:2
 [F,CF]2 [F,=B,D][F,B,D] [F,CF][F,C][F,A,][F,A,] | [B,,F,B,]2 [B,,B,]2 [F,A,C]4 | %2
 [F,CF]2 [F,A,F][F,A,F] [C,G,][C,C][C,C][C,B,] | [D,A,]2 [C,C]2 [F,CF]4 | %4
 [F,CF]2 [F,B,D][F,B,D] [F,CF][F,C][F,A,][F,A,] | [B,,F,B,]2 B,,2 B,,4 | A,,2 B,,=B,, C,3 D, | %7
 C,2 z B, F,4 | [F,A,]2 F,2 F,[F,C][F,B,F][F,A,F] | [C,C][C,C][C,C][C,C] [C,C]4 | %10
 [C,G,]2 C,2 z GD,E, | F,[F,CF][F,CF][F,=B,F] [F,CF]4 | [B,,B,]2 B,,2 z D[B,,C][B,,B,] | %13
 [F,B,F][F,A,F][F,A,F][F,CF] [F,CF]4 | A,,2 B,,=B,, C,C, D,2 | C,2 z B, F,,4 |] %16
V:3
 x8 | x8 | x8 | x8 | x8 | x8 | x8 | C2- [CEG]2 [A,F]4 | z2 A,2 A,Adc | x8 | z2 G,2 C2 [CAc][CGB] | %11
 x8 | F6 z2 | x8 | x8 | C2- [CEG]2 [F,A,F]4 |] %16
V:4
 x8 | x8 | x8 | x8 | x8 | x8 | x8 | z2 C,2 z4 | x8 | x8 | z4 C,2 z2 | x8 | z4 B,,2 z2 | x8 | x8 | %15
 z2 C,2 z4 |] %16

